.files/icons/devices/Printer.svg

<svg fill="none" height="48" viewBox="0 0 48 48" width="48" xmlns="http://www.w3.org/2000/svg"><g fill="#000"><path clip-rule="evenodd" d="m8 12c-1.10457 0-2 .8954-2 2v18c0 1.1046.89543 2 2 2h8v9c0 .5523.4477 1 1 1h14c.5523 0 1-.4477 1-1v-9h8c1.1046 0 2-.8954 2-2v-18c0-1.1046-.8954-2-2-2zm27 10c1.6569 0 3-1.3431 3-3s-1.3431-3-3-3-3 1.3431-3 3 1.3431 3 3 3zm-7 6h-8v12h8z" fill-rule="evenodd"/><rect height="4" opacity=".3" rx="2" width="16" x="16" y="4"/></g></svg>

<svg width="48" height="48" viewBox="0 0 48 48" fill="none" xmlns="http://www.w3.org/2000/svg">
<path fill-rule="evenodd" clip-rule="evenodd" d="M8 12C6.89543 12 6 12.8954 6 14V32C6 33.1046 6.89543 34 8 34H16V43C16 43.5523 16.4477 44 17 44H31C31.5523 44 32 43.5523 32 43V34H40C41.1046 34 42 33.1046 42 32V14C42 12.8954 41.1046 12 40 12H8ZM35 22C36.6569 22 38 20.6569 38 19C38 17.3431 36.6569 16 35 16C33.3431 16 32 17.3431 32 19C32 20.6569 33.3431 22 35 22ZM28 28H20V40H28V28Z" fill="black"/>
<rect opacity="0.3" x="16" y="4" width="16" height="4" rx="2" fill="black"/>
</svg>
